;FLAVOR:Marlin
;TIME:368
;Filament used: 0.227409m
;Layer height: 0.16
;MINX:111.075
;MINY:105.45
;MINZ:0.2
;MAXX:123.925
;MAXY:129.55
;MAXZ:5.4
;Generated with Cura_SteamEngine 4.11.0
M140 S50
M105
M190 S50
M104 S200
M105
M109 S200
M82 ;absolute extrusion mode
; Ender 3 Custom Start G-code
G92 E0 ; Reset Extruder
G28 ; Home all axes
G1 Z2.0 F3000 ; Move Z Axis up little to prevent scratching of Heat Bed
G1 X0.1 Y20 Z0.3 F5000.0 ; Move to start position
G1 X0.1 Y200.0 Z0.3 F1500.0 E15 ; Draw the first line
G1 X0.4 Y200.0 Z0.3 F5000.0 ; Move to side a little
G1 X0.4 Y20 Z0.3 F1500.0 E30 ; Draw the second line
G92 E0 ; Reset Extruder
G1 Z2.0 F3000 ; Move Z Axis up little to prevent scratching of Heat Bed
G1 X5 Y20 Z0.3 F5000.0 ; Move over to prevent blob squish
G92 E0
G92 E0
G1 F2700 E-5
;LAYER_COUNT:29
;LAYER:0
M107
;MESH:Clip3.stl
G0 F6000 X123.125 Y124.246 Z0.2
;TYPE:WALL-INNER
G1 F2700 E0
G1 F1200 X122.73 Y122.195 E0.06947
G1 X119.87 Y107.353 E0.5722
G1 X114.542 Y106.647 E0.75096
G1 X111.875 Y106.294 E0.84044
G1 X111.875 Y106.25 E0.8419
G1 X114.566 Y106.25 E0.89168
G1 X123.125 Y106.25 E1.17636
G1 X123.125 Y122.157 E1.70542
G1 X123.125 Y122.158 E1.70546
G1 X123.125 Y124.246 E1.74034
G0 F6000 X123.525 Y128.437
G1 F1200 X123.13 Y126.386 E1.80981
G1 X119.532 Y107.712 E2.44233
G1 X111.475 Y106.645 E2.71265
G1 X111.475 Y105.85 E2.73909
G1 X123.525 Y105.85 E3.13988
G1 X123.525 Y126.348 E3.82164
G1 X123.525 Y126.349 E3.82168
G1 X123.525 Y128.437 E3.85656
G0 F6000 X123.217 Y128.95
;TYPE:WALL-OUTER
G1 F1200 X119.194 Y108.071 E4.56377
G1 X111.275 Y107.022 E4.82946
G1 X111.275 Y129.55 E5.57874
G1 X111.075 Y129.55 E5.58539
G1 X111.075 Y105.45 E6.38696
G1 X123.925 Y105.45 E6.81436
G1 X123.925 Y129.55 E7.61592
G1 X121.575 Y129.55 E7.69409
G1 X121.575 Y128.95 E7.71404
G1 X123.217 Y128.95 E7.76865
G0 F6000 X123.217 Y129.25
G0 X123.489 Y129.175
G0 X123.015 Y120.16
G0 X122.735 Y120.16
;TYPE:SKIN
G1 F1200 X120.2 Y107.004 E8.21427
G1 X117.452 Y106.64 E8.30647
G1 X122.735 Y106.64 E8.48218
G1 X122.735 Y120.16 E8.93186
G0 F6000 X123.015 Y120.16
G0 X123.015 Y118.049
G0 X122.574 Y118.049
G1 F1200 X122.47 Y117.945 E8.93675
G0 F6000 X122.574 Y117.483
G1 F1200 X122.335 Y117.244 E8.948
G0 F6000 X122.574 Y116.917
G1 F1200 X122.2 Y116.543 E8.96559
G0 F6000 X122.574 Y116.352
G1 F1200 X122.065 Y115.843 E8.98953
G0 F6000 X122.574 Y115.786
G1 F1200 X121.93 Y115.142 E9.01982
G0 F6000 X122.574 Y115.22
G1 F1200 X121.795 Y114.441 E9.05646
G0 F6000 X121.66 Y113.74
G1 F1200 X122.574 Y114.655 E9.09948
G0 F6000 X122.574 Y114.089
G1 F1200 X121.524 Y113.039 E9.14887
G0 F6000 X121.389 Y112.338
G1 F1200 X122.574 Y113.523 E9.20461
G0 F6000 X122.574 Y112.958
G1 F1200 X121.254 Y111.638 E9.26669
G0 F6000 X121.119 Y110.937
G1 F1200 X122.574 Y112.392 E9.33513
G0 F6000 X122.574 Y111.826
G1 F1200 X120.984 Y110.236 E9.40992
G0 F6000 X120.849 Y109.535
G1 F1200 X122.574 Y111.261 E9.49108
G0 F6000 X122.574 Y110.695
G1 F1200 X120.714 Y108.835 E9.57857
G0 F6000 X120.579 Y108.134
G1 F1200 X122.574 Y110.129 E9.67241
G0 F6000 X122.574 Y109.564
G1 F1200 X120.444 Y107.433 E9.77262
G0 F6000 X120.376 Y106.799
G1 F1200 X122.574 Y108.998 E9.87603
G0 F6000 X122.574 Y108.432
G1 F1200 X120.942 Y106.799 E9.95282
G0 F6000 X121.507 Y106.799
G1 F1200 X122.574 Y107.867 E10.00303
G0 F6000 X122.574 Y107.301
G1 F1200 X122.073 Y106.799 E10.02662
G0 F6000 X122.073 Y106.36
G0 X117.282 Y106.36
G0 X117.282 Y106.534
;TYPE:SKIN
G1 F1200 X117.158 Y106.41 E10.02954
G0 F6000 X116.875 Y106.41
G1 F1200 X117.265 Y106.799 E10.0387
G0 F6000 X116.992 Y106.809
G1 F1200 X116.592 Y106.41 E10.0481
G0 F6000 X116.309 Y106.41
G1 F1200 X116.666 Y106.766 E10.05648
G0 F6000 X116.34 Y106.723
G1 F1200 X116.027 Y106.41 E10.06384
G0 F6000 X116.014 Y106.68
G1 F1200 X115.744 Y106.41 E10.07019
G0 F6000 X115.688 Y106.637
G1 F1200 X115.461 Y106.41 E10.07553
G0 F6000 X115.362 Y106.594
G1 F1200 X115.178 Y106.41 E10.07986
G0 F6000 X115.036 Y106.551
G1 F1200 X114.895 Y106.41 E10.08317
G0 F6000 X114.71 Y106.507
G1 F1200 X114.612 Y106.41 E10.08547
G0 F6000 X116.965 Y107.542
G0 X119.39 Y107.863
G0 X122.49 Y120.37
G0 X122.611 Y120.348
G1 F1200 X122.964 Y120.701 E10.09377
G0 F6000 X122.964 Y120.418
G1 F1200 X122.868 Y120.322 E10.09603
G0 F6000 X122.584 Y120.604
G1 F1200 X122.964 Y120.984 E10.10496
G0 F6000 X122.964 Y121.267
G1 F1200 X122.651 Y120.954 E10.11232
G0 F6000 X122.719 Y121.305
G1 F1200 X122.964 Y121.55 E10.11809
G0 F6000 X122.787 Y121.656
G1 F1200 X122.964 Y121.833 E10.12225
G0 F6000 X122.855 Y122.007
G1 F1200 X122.964 Y122.115 E10.1248
G0 F6000 X122.924 Y122.146
G0 X123.262 Y124.393
G0 X123.306 Y124.437
G1 F1200 X123.177 Y124.591 E10.12924
G1 X123.265 Y125.811 E10.15624
G1 X123.299 Y126.127 E10.16326
G0 F6000 X123.35 Y126.178
G0 X123.507 Y128.598
G0 X123.628 Y128.719
G1 F1200 X123.55 Y128.924 E10.16967
G1 X123.568 Y129.224 E10.17845
G1 X122.177 Y129.249 E10.21909
G0 F6000 X122.02 Y129.374
G1 F1200 X121.77 Y129.124 E10.22497
;MESH:NONMESH
G0 F300 X121.77 Y129.124 Z0.4
G0 F6000 X121.845 Y129.22
G0 X123.489 Y129.175
G0 X123.125 Y124.246
;TIME_ELAPSED:24.812019
;LAYER:1
M106 S85
;TYPE:WALL-INNER
;MESH:Clip3.stl
G1 F1350 X122.73 Y122.195 E10.29444
G1 X119.87 Y107.353 E10.79717
G1 X114.542 Y106.647 E10.97593
G1 X111.875 Y106.294 E11.06541
G1 X111.875 Y106.25 E11.06687
G1 X114.566 Y106.25 E11.11666
G1 X123.125 Y106.25 E11.40133
G1 X123.125 Y122.157 E11.9304
G1 X123.125 Y122.158 E11.93043
G1 X123.125 Y124.246 E11.96531
G0 F7500 X123.525 Y128.437
G1 F1350 X123.13 Y126.386 E12.03478
G1 X119.532 Y107.712 E12.66731
G1 X111.475 Y106.645 E12.93762
G1 X111.475 Y105.85 E12.96406
G1 X123.525 Y105.85 E13.36485
G1 X123.525 Y126.348 E14.04662
G1 X123.525 Y126.349 E14.04665
G1 X123.525 Y128.437 E14.08153
G0 F7500 X123.217 Y128.95
;TYPE:WALL-OUTER
G1 F1350 X119.194 Y108.071 E14.78874
G1 X111.275 Y107.022 E15.05443
G1 X111.275 Y129.55 E15.80371
G1 X111.075 Y129.55 E15.81037
G1 X111.075 Y105.45 E16.61194
G1 X123.925 Y105.45 E17.03933
G1 X123.925 Y129.55 E17.8409
G1 X121.575 Y129.55 E17.91906
G1 X121.575 Y128.95 E17.93902
G1 X123.217 Y128.95 E17.99363
G0 F7500 X123.217 Y129.25
G0 X123.489 Y129.175
G0 X123.015 Y120.16
G0 X122.735 Y120.16
;TYPE:SKIN
G1 F1350 X120.2 Y107.004 E18.43925
G1 X117.452 Y106.64 E18.53145
G1 X122.735 Y106.64 E18.70716
G1 X122.735 Y120.16 E19.15684
G0 F7500 X123.015 Y120.16
G0 X122.918 Y122.086
G0 X122.038 Y118.026
G0 X122.471 Y117.944
G1 F1350 X122.574 Y117.842 E19.16166
G0 F7500 X122.379 Y117.47
G1 F1350 X122.574 Y117.276 E19.17081
G0 F7500 X122.288 Y116.996
G1 F1350 X122.574 Y116.71 E19.18426
G0 F7500 X122.197 Y116.522
G1 F1350 X122.574 Y116.145 E19.20199
G0 F7500 X122.105 Y116.048
G1 F1350 X122.574 Y115.579 E19.22405
G0 F7500 X122.014 Y115.573
G1 F1350 X122.574 Y115.013 E19.25039
G0 F7500 X122.574 Y114.448
G1 F1350 X121.922 Y115.099 E19.28104
G0 F7500 X121.831 Y114.624
G1 F1350 X122.574 Y113.882 E19.31596
G0 F7500 X122.574 Y113.316
G1 F1350 X121.739 Y114.151 E19.35524
G0 F7500 X121.648 Y113.676
G1 F1350 X122.574 Y112.751 E19.39877
G0 F7500 X122.574 Y112.185
G1 F1350 X121.557 Y113.202 E19.44661
G0 F7500 X121.465 Y112.728
G1 F1350 X122.574 Y111.619 E19.49877
G0 F7500 X122.574 Y111.053
G1 F1350 X121.374 Y112.253 E19.55521
G0 F7500 X121.282 Y111.779
G1 F1350 X122.574 Y110.488 E19.61596
G0 F7500 X122.574 Y109.922
G1 F1350 X121.191 Y111.304 E19.68099
G0 F7500 X121.099 Y110.831
G1 F1350 X122.574 Y109.356 E19.75037
G0 F7500 X122.574 Y108.791
G1 F1350 X121.008 Y110.356 E19.82401
G0 F7500 X120.917 Y109.882
G1 F1350 X122.574 Y108.225 E19.90195
G0 F7500 X122.574 Y107.659
G1 F1350 X120.826 Y109.407 E19.98417
G0 F7500 X120.734 Y108.934
G1 F1350 X122.574 Y107.094 E20.07072
G0 F7500 X122.302 Y106.799
G1 F1350 X120.643 Y108.459 E20.14877
G0 F7500 X120.551 Y107.985
G1 F1350 X121.736 Y106.799 E20.20454
G0 F7500 X121.171 Y106.799
G1 F1350 X120.459 Y107.511 E20.23803
G0 F7500 X120.368 Y107.036
G1 F1350 X120.605 Y106.799 E20.24917
G0 F7500 X120.605 Y106.36
G0 X117.289 Y106.36
G0 X117.289 Y106.439
;TYPE:SKIN
G1 F1350 X116.926 Y106.802 E20.25771
G0 F7500 X117.176 Y106.835
G1 F1350 X117.268 Y106.743 E20.25988
G0 F7500 X117.035 Y106.41
G1 F1350 X116.676 Y106.768 E20.26831
G0 F7500 X116.427 Y106.735
G1 F1350 X116.752 Y106.41 E20.27595
G0 F7500 X116.469 Y106.41
G1 F1350 X116.176 Y106.703 E20.28284
G0 F7500 X115.927 Y106.669
G1 F1350 X116.186 Y106.41 E20.28893
G0 F7500 X115.903 Y106.41
G1 F1350 X115.677 Y106.636 E20.29425
G0 F7500 X115.621 Y106.41
G1 F1350 X115.428 Y106.603 E20.29879
G0 F7500 X115.338 Y106.41
G1 F1350 X115.177 Y106.57 E20.30256
G0 F7500 X115.055 Y106.41
G1 F1350 X114.928 Y106.537 E20.30555
G0 F7500 X114.772 Y106.41
G1 F1350 X114.678 Y106.504 E20.30776
G0 F7500 X114.627 Y106.454
G0 X119.39 Y107.863
G0 X122.49 Y120.37
G0 X122.613 Y120.348
G1 F1350 X122.547 Y120.413 E20.3093
G0 F7500 X122.593 Y120.65
G1 F1350 X122.928 Y120.316 E20.31717
G0 F7500 X122.964 Y120.563
G1 F1350 X122.639 Y120.887 E20.3248
G0 F7500 X122.685 Y121.124
G1 F1350 X122.964 Y120.845 E20.33136
G0 F7500 X122.964 Y121.128
G1 F1350 X122.731 Y121.362 E20.33685
G0 F7500 X122.964 Y121.411
G1 F1350 X122.777 Y121.599 E20.34126
G0 F7500 X122.964 Y121.694
G1 F1350 X122.823 Y121.835 E20.34458
G0 F7500 X122.964 Y121.977
G1 F1350 X122.868 Y122.072 E20.34682
G0 F7500 X122.924 Y122.146
G0 X123.076 Y124.41
G0 X123.013 Y124.472
G1 F1350 X123.173 Y124.596 E20.35123
G1 X123.31 Y126.155 E20.38526
G0 F7500 X123.272 Y126.194
G0 X123.455 Y128.599
G0 X123.372 Y128.639
G1 F1350 X123.552 Y128.743 E20.3902
G1 X123.477 Y129.101 E20.39889
G1 X122.763 Y129.249 E20.41621
G1 X121.914 Y129.249 E20.43638
G0 F7500 X121.789 Y129.25
G0 X123.487 Y129.25
G0 X123.487 Y129.374
G1 F1350 X123.75 Y129.111 E20.44256
;MESH:NONMESH
G0 F300 X123.75 Y129.111 Z0.6
G0 F7500 X123.625 Y129.111
G0 X123.125 Y124.246
;TIME_ELAPSED:44.099117
;LAYER:2
M106 S170
;TYPE:WALL-INNER
;MESH:Clip3.stl
G1 F1500 X122.73 Y122.195 E20.51203
G1 X119.87 Y107.353 E21.01476
G1 X114.542 Y106.647 E21.19352
G1 X111.875 Y106.294 E21.283
G1 X111.875 Y106.25 E21.28446
G1 X114.566 Y106.25 E21.33424
G1 X123.125 Y106.25 E21.61892
G1 X123.125 Y122.157 E22.14799
G1 X123.125 Y122.158 E22.14802
G1 X123.125 Y124.246 E22.1829
G0 F9000 X123.525 Y128.437
G1 F1500 X123.13 Y126.386 E22.25237
G1 X119.532 Y107.712 E22.88489
G1 X111.475 Y106.645 E23.15521
G1 X111.475 Y105.85 E23.18165
G1 X123.525 Y105.85 E23.58244
G1 X123.525 Y126.348 E24.2642
G1 X123.525 Y126.349 E24.26424
G1 X123.525 Y128.437 E24.29912
G0 F9000 X123.217 Y128.95
;TYPE:WALL-OUTER
G1 F1500 X119.194 Y108.071 E25.00633
G1 X111.275 Y107.022 E25.27202
G1 X111.275 Y129.55 E26.0213
G1 X111.075 Y129.55 E26.02796
G1 X111.075 Y105.45 E26.82952
G1 X123.925 Y105.45 E27.25692
G1 X123.925 Y129.55 E28.05849
G1 X121.575 Y129.55 E28.13665
G1 X121.575 Y128.95 E28.1566
G1 X123.217 Y128.95 E28.21122
G0 F9000 X123.217 Y129.25
G0 X123.461 Y129.183
G0 X123.044 Y111.73
;TYPE:FILL
G1 F3000 X120.256 Y108.942 E28.34236
G0 F9000 X119.477 Y107.971
G0 X118.39 Y107.077
G1 F3000 X117.643 Y106.329 E28.37752
G0 F9000 X117.306 Y106.558
;TYPE:SKIN
G1 F1500 X117.095 Y106.63 E28.38327
G1 X114.964 Y106.479 E28.43845
G0 F9000 X114.91 Y106.425
G0 X119.39 Y107.863
G0 X122.536 Y120.273
G0 X122.742 Y120.479
G1 F1500 X122.855 Y120.31 E28.44364
G1 X122.81 Y121.113 E28.46417
G1 X122.878 Y121.747 E28.48044
G0 F9000 X122.949 Y121.818
G0 X123.262 Y124.393
G0 X123.306 Y124.437
G1 F1500 X123.177 Y124.591 E28.48487
G1 X123.265 Y125.811 E28.51188
G1 X123.299 Y126.127 E28.5189
G0 F9000 X123.35 Y126.178
G0 X123.507 Y128.598
G0 X123.628 Y128.719
G1 F1500 X123.55 Y128.924 E28.52531
G1 X123.568 Y129.224 E28.53409
G1 X122.177 Y129.249 E28.57473
G0 F9000 X122.02 Y129.374
G1 F1500 X121.77 Y129.124 E28.58061
;MESH:NONMESH
G0 F300 X121.77 Y129.124 Z0.8
G0 F9000 X121.845 Y129.22
G0 X123.489 Y129.175
G0 X123.125 Y124.246
;TIME_ELAPSED:56.624858
;LAYER:3
M106 S255
;TYPE:WALL-INNER
;MESH:Clip3.stl
G1 F1500 X122.73 Y122.195 E28.65008
G1 X119.87 Y107.353 E29.15281
G1 X114.542 Y106.647 E29.33157
G1 X111.875 Y106.294 E29.42105
G1 X111.875 Y106.25 E29.42251
G1 X114.566 Y106.25 E29.47229
G1 X123.125 Y106.25 E29.75697
G1 X123.125 Y122.157 E30.28604
G1 X123.125 Y122.158 E30.28607
G1 X123.125 Y124.246 E30.32095
G0 F9000 X123.525 Y128.437
G1 F1500 X123.13 Y126.386 E30.39042
G1 X119.532 Y107.712 E31.02294
G1 X111.475 Y106.645 E31.29326
G1 X111.475 Y105.85 E31.3197
G1 X123.525 Y105.85 E31.72049
G1 X123.525 Y126.348 E32.40225
G1 X123.525 Y126.349 E32.40229
G1 X123.525 Y128.437 E32.43717
G0 F9000 X123.217 Y128.95
;TYPE:WALL-OUTER
G1 F1500 X119.194 Y108.071 E33.14438
G1 X111.275 Y107.022 E33.41007
G1 X111.275 Y129.55 E34.15935
G1 X111.075 Y129.55 E34.166
G1 X111.075 Y105.45 E34.96757
G1 X123.925 Y105.45 E35.39497
G1 X123.925 Y129.55 E36.19654
G1 X121.575 Y129.55 E36.2747
G1 X121.575 Y128.95 E36.29465
G1 X123.217 Y128.95 E36.34927
G0 F9000 X123.217 Y129.25
G0 X123.489 Y129.175
G0 X121.193 Y113.806
;TYPE:FILL
G1 F3000 X123.044 Y111.955 E36.43633
G0 F9000 X119.39 Y107.863
G0 X117.356 Y106.329
G1 F3000 X116.817 Y106.868 E36.46168
G0 F9000 X117.121 Y106.606
;TYPE:SKIN
G1 F1500 X117.319 Y106.691 E36.46699
G1 X116.322 Y106.556 E36.49175
G1 X114.991 Y106.474 E36.52457
G0 F9000 X114.941 Y106.524
G0 X119.39 Y107.863
G0 X122.743 Y120.218
G0 X122.652 Y120.308
G1 F1500 X122.778 Y120.466 E36.52907
G1 X122.928 Y122.013 E36.56369
G0 F9000 X122.907 Y122.034
G0 X123.076 Y124.41
G0 X123.013 Y124.472
G1 F1500 X123.173 Y124.596 E36.56809
G1 X123.31 Y126.155 E36.60213
G0 F9000 X123.272 Y126.194
G0 X123.455 Y128.599
G0 X123.372 Y128.639
G1 F1500 X123.552 Y128.743 E36.60707
G1 X123.477 Y129.101 E36.61576
G1 X122.763 Y129.249 E36.63308
G1 X121.914 Y129.249 E36.65324
G0 F9000 X121.789 Y129.25
G0 X123.487 Y129.25
G0 X123.487 Y129.374
G1 F1500 X123.75 Y129.111 E36.65943
;MESH:NONMESH
G0 F300 X123.75 Y129.111 Z1
G0 F9000 X123.625 Y129.111
G0 X123.125 Y124.246
;TIME_ELAPSED:69.260720
;LAYER:4
;TYPE:WALL-INNER
;MESH:Clip3.stl
G1 F1500 X122.73 Y122.195 E36.7289
G1 X119.87 Y107.353 E37.23163
G1 X114.542 Y106.647 E37.41039
G1 X111.875 Y106.294 E37.49987
G1 X111.875 Y106.25 E37.50133
G1 X114.566 Y106.25 E37.55111
G1 X123.125 Y106.25 E37.83578
G1 X123.125 Y122.157 E38.36485
G1 X123.125 Y122.158 E38.36489
G1 X123.125 Y124.246 E38.39977
G0 F9000 X123.525 Y128.437
G1 F1500 X123.13 Y126.386 E38.46924
G1 X119.532 Y107.712 E39.10176
G1 X111.475 Y106.645 E39.37208
G1 X111.475 Y105.85 E39.39852
G1 X123.525 Y105.85 E39.79931
G1 X123.525 Y126.348 E40.48107
G1 X123.525 Y126.349 E40.4811
G1 X123.525 Y128.437 E40.51599
G0 F9000 X123.217 Y128.95
;TYPE:WALL-OUTER
G1 F1500 X119.194 Y108.071 E41.2232
G1 X111.275 Y107.022 E41.48889
G1 X111.275 Y129.55 E42.23817
G1 X111.075 Y129.55 E42.24482
G1 X111.075 Y105.45 E43.04639
G1 X123.925 Y105.45 E43.47378
G1 X123.925 Y129.55 E44.27535
G1 X121.575 Y129.55 E44.35351
G1 X121.575 Y128.95 E44.37347
G1 X123.217 Y128.95 E44.42808
G0 F9000 X123.217 Y129.25
G0 X123.461 Y129.183
G0 X123.044 Y111.73
;TYPE:FILL
G1 F3000 X120.256 Y108.942 E44.55922
G0 F9000 X119.477 Y107.971
G0 X118.39 Y107.077
G1 F3000 X117.643 Y106.329 E44.59438
G0 F9000 X117.306 Y106.558
;TYPE:SKIN
G1 F1500 X117.095 Y106.63 E44.60014
G1 X114.964 Y106.479 E44.65532
G0 F9000 X114.91 Y106.425
G0 X119.39 Y107.863
G0 X122.536 Y120.273
G0 X122.742 Y120.479
G1 F1500 X122.855 Y120.31 E44.66051
G1 X122.81 Y121.113 E44.68103
G1 X122.878 Y121.747 E44.69731
G0 F9000 X122.949 Y121.818
G0 X123.262 Y124.393
G0 X123.306 Y124.437
G1 F1500 X123.177 Y124.591 E44.70174
G1 X123.265 Y125.811 E44.72875
G1 X123.299 Y126.127 E44.73576
G0 F9000 X123.35 Y126.178
G0 X123.507 Y128.598
